img/svg/vk.svg

<svg width="24" height="24" viewBox="0 0 24 24"  xmlns="http://www.w3.org/2000/svg">
<g clip-path="url(#clip0_1974_18227)">
<path fill-rule="evenodd" clip-rule="evenodd" d="M1.68707 1.68707C0 3.37413 0 6.0894 0 11.52V12.48C0 17.9106 0 20.6259 1.68707 22.313C3.37413 24 6.0894 24 11.52 24H12.48C17.9106 24 20.6259 24 22.313 22.313C24 20.6259 24 17.9106 24 12.48V11.52C24 6.0894 24 3.37413 22.313 1.68707C20.6259 0 17.9106 0 12.48 0H11.52C6.0894 0 3.37413 0 1.68707 1.68707ZM4.05006 7.30005C4.18006 13.54 7.30005 17.2901 12.7701 17.2901H13.0801V13.72C15.0901 13.92 16.61 15.3901 17.22 17.2901H20.06C19.28 14.4501 17.2299 12.8801 15.95 12.2801C17.2299 11.5401 19.0299 9.74005 19.4599 7.30005H16.8799C16.3199 9.28005 14.6601 11.08 13.0801 11.25V7.30005H10.5V14.22C8.9 13.8201 6.88005 11.88 6.79005 7.30005H4.05006Z" />
</g>
<defs>
<clipPath id="clip0_1974_18227">
<rect width="24" height="24" fill="white"/>
</clipPath>
</defs>
</svg>

<svg width="24" height="24" viewBox="0 0 24 24" xmlns="http://www.w3.org/2000/svg"><g clip-path="url(#clip0_1974_18227)"><path fill-rule="evenodd" clip-rule="evenodd" d="M1.687 1.687C0 3.374 0 6.09 0 11.52v.96c0 5.43 0 8.146 1.687 9.833C3.374 24 6.09 24 11.52 24h.96c5.43 0 8.146 0 9.833-1.687C24 20.626 24 17.911 24 12.48v-.96c0-5.43 0-8.146-1.687-9.833C20.626 0 17.911 0 12.48 0h-.96C6.09 0 3.374 0 1.687 1.687zM4.05 7.3c.13 6.24 3.25 9.99 8.72 9.99h.31v-3.57c2.01.2 3.53 1.67 4.14 3.57h2.84c-.78-2.84-2.83-4.41-4.11-5.01 1.28-.74 3.08-2.54 3.51-4.98h-2.58c-.56 1.98-2.22 3.78-3.8 3.95V7.3H10.5v6.92c-1.6-.4-3.62-2.34-3.71-6.92H4.05z"/></g><defs><clipPath id="clip0_1974_18227"><path fill="#fff" d="M0 0h24v24H0z"/></clipPath></defs></svg>
